X:1
T:Title
%%score { ( 1 3 4 ) | 2 }
L:1/8
M:4/4
K:Ab
V:1 treble nm="Grand Piano"
V:3 treble 
V:4 treble 
V:2 bass 
V:1
 z4 z2[Q:1/4=108] E2 | A2 G2 z2 z E | z4 c4 | [Ge][Ge][Ge][Ge] [Ge][Gd][GB][Gd] |[M:3/4] c6 | %5
[M:1/4] E2 |[M:4/4] A2 G2 z2 z E | z4 c4 | [GB][GB][GB][GB] [GB][Gd][Gc][GB] |[M:3/4] A6 | %10
[M:1/4] A2 |[M:4/4] z4 B4 | z4 c4 | z4 d4 | z4 e4 | e2 d2 c2 e2 | e2 d2 z2 D2 | EEAA GA[Gd][GB] | %18
[M:3/4] A6 |[M:1/4] AA |[M:4/4] [FA]4 [Fd]4 | [CE]4 [Ec]4 | [Ge][Ge][Ge][Ge] [Ge][GB][Ge][Gd] | %23
[M:3/4] c6 |[M:1/4] AA |[M:4/4] [FA]4 [Fd]4 | [CE]4 [Ec]4 | [GB][GB][GB][GB] [GB][Gd][Gc][GB] | %28
[M:3/4] A6 |] %29
V:2
 z8 | A,,2 [E,A,C]2 [E,A,C]2 [E,A,]2 | A,,2 [E,A,C]2 [E,A,C]2 [E,A,]2 | %3
 [E,B,][E,B,][E,B,][E,B,] [E,B,][E,B,][E,E][E,E] |[M:3/4][K:treble] [A,EA]6 |[M:1/4] z2 | %6
[M:4/4][K:bass] A,,2 [E,A,C]2 [E,A,C]2 [E,A,]2 | A,,2 [E,A,C]2 [E,A,C]2 [E,A,]2 | %8
 [E,D][E,D][E,D][E,D] [E,D][E,B,][E,E][E,D] |[M:3/4] [A,C]6 |[M:1/4] z2 | %11
[M:4/4] E,,2 [E,G,D]2 [E,G,D]2 [E,G,]2 | A,,2 [E,A,C]2 [E,A,C]2 [E,A,]2 | %13
 E,,2 [E,G,D]2 [E,G,D]2 [E,G,]2 | A,,2 [E,A,C]2 [E,A,C]2 [E,A,]2 | %15
 A,,2 [E,A,C]2 [E,A,C]2 [E,A,C]2 | D,,2 [F,A,D]2 [F,A,D]2 [F,A,]2 | %17
 [E,A,C][E,A,C][E,CE][E,CE] [E,B,E][E,CE][E,E][E,D] |[M:3/4] [A,C]6 |[M:1/4] [A,C][A,C] | %20
[M:4/4] [D,D]4 [D,A,]4 | [A,,A,]4 [A,,A,]4 | [E,B,][E,B,][E,B,][E,B,] [E,B,][E,E][E,B,][E,E] | %23
[M:3/4][K:treble] [A,EA]6 |[M:1/4] [A,C][K:bass][A,C] |[M:4/4] [D,D]4 [D,A,]4 | [A,,A,]4 [A,,A,]4 | %27
 [E,D][E,D][E,D][E,D] [E,D][E,B,][E,E][E,D] |[M:3/4] [A,C]6 |] %29
V:3
 x8 | z4 F4 | A2 B2 z2 C2 | x8 |[M:3/4] x6 |[M:1/4] x2 |[M:4/4] z4 F4 | A2 B2 z2 C2 | x8 | %9
[M:3/4] x6 |[M:1/4] x2 |[M:4/4] G2 A2 z2 z G | A2 B2 z2 z c | B2 c2 z2 z B | c2 d2 z2 z e | x8 | %16
 z4 F4 | x8 |[M:3/4] x6 |[M:1/4] x2 |[M:4/4] x8 | x8 | x8 |[M:3/4] x6 |[M:1/4] x2 |[M:4/4] x8 | %26
 x8 | x8 |[M:3/4] x6 |] %29
V:4
 x8 | z4 z2 C2 | x8 | x8 |[M:3/4] x6 |[M:1/4] x2 |[M:4/4] z4 z2 C2 | x8 | x8 |[M:3/4] x6 | %10
[M:1/4] x2 |[M:4/4] z4 z2 D2 | z4 z2 C2 | z4 z2 D2 | z4 z2 C2 | x8 | x8 | x8 |[M:3/4] x6 | %19
[M:1/4] x2 |[M:4/4] x8 | x8 | x8 |[M:3/4] x6 |[M:1/4] x2 |[M:4/4] x8 | x8 | x8 |[M:3/4] x6 |] %29

